X: 1
T: Ookpik Waltz
C: Frankie Rodgers (Altan)
R: waltz
Z: 2018 John Chambers <jc:trillian.mit.edu>
M: 3/4
L: 1/8
K: G
D E>F [|\
"G"G3 A B>d | "D"A F3 (3DED | "C"EG- G3 A | "G"G3 A B>d |\
"Em"e4 e>f | "C"e d3 B>A | "G"B d3 e2 | d2 g2 f2 |
"Em"e4 e>f | "C"e d3 (3dBA | "G"B3 d (3BAG | "Em"E4 E>D |\
"C"C3 D EG | "D7"D F3 D2 | "C"E2 G3 A | "G"G3 H:|
A B>d |\
"Em"e2 B3 A | B4 e2 | "Bm"d2 B3 ^A | B4 _B2 |\
"Am"A4 A>B | A G3 (3GED | "C"EG- G3 A | "G"G2 B2 d2 |
"Em"e2 B3 A | B4 e2 | "Bm"d2 B3 c | B4 _B2 |\
"Am"A4 A>B | A G3 (3GED | "C"EG- G3 E | "D7"FE D2 "d.C."(3DEF |]
